app/dist/common/images/american-public-education.svg

<svg height="18" viewBox="0 0 18 18" width="18" xmlns="http://www.w3.org/2000/svg"><path d="m0 0h18v18h-18z" fill="#831f1a"/><path d="m13 5h-8v8h8zm-5.62 1.56.39.82c.1-.2.61-.6 1.75-.6 1.13 0 1.46 1.04 1.48 1.56h-1.48c-1.1 0-2.52.68-2.52 1.9s1 1.76 2 1.76c.8 0 1.7-.56 2-.84v.84h1v-3.78c0-1.65-1.35-2.22-2.48-2.22-.91 0-1.8.37-2.14.56zm3.62 3.3v-.86h-1.63a1.3 1.3 0 0 0 -1.37 1.09c-.02.35.2 1.04 1.3 1.04s1.59-.85 1.7-1.27z" fill="#fff" fill-rule="evenodd"/></svg>

<!-- by TradingView --><svg xmlns="http://www.w3.org/2000/svg" width="18" height="18" viewBox="0 0 18 18"><path fill="#831F1A" d="M0 0h18v18H0z"/><path fill-rule="evenodd" d="M13 5H5v8h8V5zM7.38 6.56l.39.82c.1-.2.61-.6 1.75-.6 1.13 0 1.46 1.04 1.48 1.56H9.52c-1.1 0-2.52.68-2.52 1.9C7 11.46 8 12 9 12c.8 0 1.7-.56 2-.84V12h1V8.22C12 6.57 10.65 6 9.52 6c-.91 0-1.8.37-2.14.56zM11 9.86V9H9.37A1.3 1.3 0 0 0 8 10.09c-.02.35.2 1.04 1.3 1.04s1.59-.85 1.7-1.27z" fill="#fff"/></svg>
